X:1
T:Title
%%score { ( 1 3 ) | 2 }
L:1/8
Q:1/4=100
M:4/4
K:Eb
V:1 treble nm="Grand Piano"
V:3 treble 
V:2 bass 
V:1
 [GB][GB][GB][FA] GGGF | EEEE E4 | DE[DF][DG] [DF]4 | EG[GB][Ac] [GB]4 | cccd eeec | %5
w: Homer~A.~Hammontree * * * * * * *|||||
 [GB][GB][GB][Ac] G4 | EEEA G2 [A,DF]2 | [G,E]6 z2 | F4[K:bass][K:treble] z B3 | G4 z B3 | %10
w: |||||
 =AAAG FFGA | [B,DB]2 [EGB]2 [DAB]4 | [GB][GB][GB][Ac] [GB][FA]GB |[M:5/4] cccd e6 | %14
w: ||||
[M:4/4] EEEA G2 [DF]2 | E6 z2 |] %16
w: ||
V:2
 [E,E][E,E][E,E][E,E] [E,B,E][E,B,E][E,B,E][E,A,E] | [E,G,B,][E,G,B,][E,A,C][E,A,C] [E,G,B,]4 | %2
 [B,,F,B,][B,,G,B,][B,,A,][B,,B,] [B,,A,]4 | [E,G,][E,B,E][E,E][E,E] [E,E]4 | %4
 [A,EA][A,EA][A,EA][A,CA] [A,CA][A,CA][A,CA][A,EA] | [E,E][E,E][E,E][E,E] [E,B,E]4 | %6
 [E,G,][F,A,][K:treble][G,B,][A,CF][K:bass] [B,E]2 B,,2 | E,6 z2 | %8
 B,,B,,B,,B,, B,,[B,,F,][B,,F,][B,,B,] | [E,B,E][E,B,][E,B,][E,B,E] [E,B,E][E,G,E][E,G,][E,G,] | %10
 [F,CE][F,CE][F,CE][F,B,E] [F,=A,E][F,A,E][F,B,E][F,CF] | B,,2 B,,2 B,,4 | %12
 [E,E][E,E][E,E][E,E] [E,E][E,C][E,B,E][E,G,E] |[M:5/4] [A,E][A,E][A,E][A,B,E] [A,CE]6 | %14
[M:4/4] [G,B,][F,A,][K:treble][G,B,][A,CF][K:bass] [B,E]2 [B,,A,]2 | [E,G,]6 z2 |] %16
V:3
 x8 | x8 | x8 | x8 | x8 | x8 | x8 | x8 | [B,D][K:bass][B,D][F,D][K:treble][F,DF] [F,DF]DDD | %9
 z EEG .G2 EE | x8 | x8 | x8 |[M:5/4] x10 |[M:4/4] x8 | x8 |] %16

